flaticon/business/coin-2.svg

<svg xmlns="http://www.w3.org/2000/svg" width="32" height="32" viewBox="0 0 24 24">
    <path d="M23.878906 13.074219C24.015625 12.136719 24.035156 11.199219 23.9375 10.28125 23.9375 10.253906 23.933594 10.222656 23.929688 10.191406 23.679688 8.058594 22.789062 6.058594 21.230469 4.5 20.953125 4.21875 20.648438 3.957031 20.308594 3.699219 20.0625 3.375 19.796875 3.0625 19.5 2.769531 15.445312-1.285156 8.394531-.832031 3.78125 3.777344-.832031 8.390625-1.285156 15.445312 2.769531 19.5 3.058594 19.789062 3.367188 20.046875 3.683594 20.289062 3.949219 20.636719 4.214844 20.945312 4.5 21.230469 5.871094 22.601562 7.585938 23.453125 9.429688 23.808594 9.4375 23.8125 9.445312 23.8125 9.457031 23.8125 9.492188 23.820312 9.527344 23.828125 9.5625 23.832031 9.570312 23.835938 9.578125 23.839844 9.585938 23.839844 9.585938 23.839844 9.589844 23.839844 9.589844 23.839844 10.195312 23.945312 10.8125 24 11.4375 24 11.808594 24 12.183594 23.980469 12.5625 23.941406 12.566406 23.941406 12.570312 23.945312 12.578125 23.945312 12.59375 23.945312 12.613281 23.9375 12.632812 23.933594 13.59375 23.832031 14.558594 23.609375 15.503906 23.261719 15.519531 23.253906 15.535156 23.25 15.550781 23.242188 16.207031 22.996094 16.847656 22.695312 17.46875 22.335938 17.507812 22.320312 17.546875 22.296875 17.582031 22.269531 18.179688 21.917969 18.761719 21.507812 19.316406 21.046875 19.628906 20.789062 19.929688 20.511719 20.222656 20.222656 21.492188 18.949219 22.445312 17.496094 23.078125 15.96875 23.085938 15.953125 23.09375 15.9375 23.097656 15.921875 23.46875 15.015625 23.726562 14.082031 23.867188 13.152344 23.875 13.125 23.878906 13.101562 23.878906 13.074219zM22.550781 15.050781L21.457031 13.957031C21.515625 13.808594 21.570312 13.664062 21.621094 13.515625 21.644531 13.449219 21.664062 13.382812 21.683594 13.320312 21.742188 13.144531 21.792969 12.972656 21.84375 12.796875 21.859375 12.730469 21.878906 12.664062 21.898438 12.597656 21.933594 12.460938 21.964844 12.320312 21.996094 12.183594L23.027344 13.21875C22.921875 13.832031 22.761719 14.445312 22.550781 15.050781zM21.644531 17.027344L20.511719 15.894531C20.539062 15.851562 20.566406 15.808594 20.589844 15.765625 20.601562 15.746094 20.613281 15.730469 20.621094 15.714844 20.75 15.492188 20.867188 15.265625 20.980469 15.039062 21.007812 14.988281 21.03125 14.941406 21.054688 14.894531 21.074219 14.851562 21.09375 14.808594 21.113281 14.765625L22.226562 15.878906C22.054688 16.265625 21.859375 16.648438 21.644531 17.027344zM20.464844 18.734375L19.316406 17.585938C19.429688 17.453125 19.535156 17.320312 19.640625 17.183594 19.648438 17.175781 19.65625 17.164062 19.664062 17.152344 19.800781 16.972656 19.933594 16.789062 20.0625 16.601562L21.203125 17.738281C20.972656 18.078125 20.730469 18.410156 20.464844 18.734375zM22.167969 11.207031C22.179688 11.128906 22.1875 11.054688 22.199219 10.976562 22.21875 10.78125 22.238281 10.585938 22.25 10.390625 22.257812 10.28125 22.257812 10.167969 22.261719 10.058594 22.265625 9.945312 22.269531 9.832031 22.269531 9.71875 22.269531 9.671875 22.269531 9.625 22.269531 9.574219L23.136719 10.445312C23.195312 11.019531 23.203125 11.605469 23.160156 12.195312zM21.753906 6.429688C22.277344 7.230469 22.644531 8.109375 22.882812 9.035156L22.183594 8.335938C22.175781 8.269531 22.164062 8.207031 22.15625 8.144531 22.140625 8.039062 22.125 7.933594 22.105469 7.828125 22.070312 7.636719 22.03125 7.445312 21.988281 7.257812 21.96875 7.171875 21.945312 7.089844 21.921875 7.003906 21.882812 6.859375 21.839844 6.714844 21.796875 6.574219 21.78125 6.523438 21.769531 6.476562 21.753906 6.429688zM4.355469 4.355469C6.699219 2.011719 9.707031.8125 12.566406.8125 14.949219.8125 17.226562 1.648438 18.925781 3.347656 19.152344 3.574219 19.367188 3.8125 19.5625 4.0625L19.667969 4.203125C19.679688 4.214844 19.6875 4.226562 19.695312 4.234375 19.875 4.472656 20.039062 4.71875 20.191406 4.972656 20.195312 4.980469 20.199219 4.984375 20.203125 4.988281 20.351562 5.238281 20.488281 5.496094 20.609375 5.757812 20.613281 5.769531 20.621094 5.78125 20.625 5.792969 20.742188 6.046875 20.84375 6.300781 20.933594 6.5625 20.941406 6.582031 20.953125 6.605469 20.960938 6.628906 21.039062 6.863281 21.105469 7.097656 21.164062 7.335938 21.179688 7.390625 21.195312 7.445312 21.207031 7.503906 21.261719 7.726562 21.300781 7.957031 21.339844 8.183594 21.351562 8.261719 21.363281 8.34375 21.375 8.421875 21.402344 8.640625 21.421875 8.859375 21.4375 9.078125 21.441406 9.171875 21.445312 9.261719 21.449219 9.351562 21.457031 9.570312 21.457031 9.789062 21.449219 10.007812 21.449219 10.097656 21.445312 10.1875 21.4375 10.28125 21.425781 10.503906 21.40625 10.730469 21.378906 10.957031 21.371094 11.035156 21.359375 11.117188 21.347656 11.195312 21.3125 11.433594 21.273438 11.675781 21.222656 11.914062 21.210938 11.96875 21.195312 12.027344 21.183594 12.082031 21.128906 12.324219 21.066406 12.5625 20.996094 12.800781 20.984375 12.835938 20.972656 12.875 20.964844 12.910156 20.882812 13.175781 20.789062 13.4375 20.6875 13.695312 20.671875 13.734375 20.65625 13.773438 20.640625 13.8125 20.535156 14.074219 20.417969 14.332031 20.292969 14.589844 20.273438 14.628906 20.253906 14.667969 20.234375 14.707031 20.109375 14.964844 19.96875 15.214844 19.820312 15.464844 19.796875 15.503906 19.777344 15.539062 19.753906 15.578125 19.601562 15.828125 19.441406 16.070312 19.269531 16.3125 19.246094 16.347656 19.21875 16.378906 19.195312 16.410156 19.019531 16.65625 18.832031 16.898438 18.632812 17.128906 18.613281 17.152344 18.59375 17.175781 18.574219 17.199219 18.363281 17.441406 18.148438 17.683594 17.914062 17.914062 17.683594 18.144531 17.445312 18.363281 17.199219 18.574219 17.179688 18.589844 17.15625 18.609375 17.136719 18.628906 16.898438 18.828125 16.65625 19.015625 16.410156 19.195312 16.378906 19.21875 16.347656 19.242188 16.316406 19.261719 16.074219 19.4375 15.828125 19.601562 15.574219 19.753906 15.539062 19.773438 15.503906 19.796875 15.472656 19.816406 15.21875 19.964844 14.964844 20.105469 14.707031 20.234375 14.671875 20.253906 14.632812 20.269531 14.597656 20.289062 14.339844 20.414062 14.074219 20.535156 13.808594 20.640625 13.777344 20.65625 13.742188 20.667969 13.710938 20.679688 13.441406 20.785156 13.167969 20.882812 12.894531 20.964844 12.871094 20.972656 12.84375 20.980469 12.820312 20.988281 12.570312 21.0625 12.320312 21.128906 12.066406 21.183594 12.019531 21.195312 11.972656 21.207031 11.921875 21.21875 11.675781 21.269531 11.429688 21.3125 11.183594 21.347656 11.113281 21.355469 11.039062 21.367188 10.96875 21.378906 10.734375 21.40625 10.503906 21.425781 10.273438 21.4375 10.1875 21.441406 10.101562 21.445312 10.019531 21.449219 9.792969 21.457031 9.570312 21.453125 9.34375 21.445312 9.261719 21.445312 9.175781 21.4375 9.089844 21.433594 8.863281 21.421875 8.640625 21.398438 8.417969 21.371094 8.34375 21.359375 8.269531 21.347656 8.195312 21.335938 7.960938 21.300781 7.730469 21.257812 7.5 21.203125 7.449219 21.191406 7.398438 21.179688 7.347656 21.164062 7.101562 21.105469 6.859375 21.035156 6.621094 20.953125 6.605469 20.949219 6.585938 20.941406 6.570312 20.9375 6.304688 20.84375 6.046875 20.738281 5.789062 20.621094 5.78125 20.617188 5.769531 20.613281 5.761719 20.609375 5.5 20.484375 5.242188 20.347656 4.988281 20.199219 4.984375 20.195312 4.980469 20.191406 4.976562 20.191406 4.722656 20.039062 4.476562 19.871094 4.238281 19.691406 4.226562 19.683594 4.214844 19.675781 4.203125 19.667969L4.066406 19.5625C3.816406 19.363281 3.578125 19.152344 3.347656 18.921875-.390625 15.183594.0625 8.648438 4.355469 4.355469zM17.394531 21.429688L16.253906 20.289062C16.308594 20.253906 16.363281 20.222656 16.414062 20.1875 16.433594 20.175781 16.449219 20.167969 16.464844 20.15625 16.683594 20.007812 16.898438 19.855469 17.109375 19.695312 17.160156 19.65625 17.210938 19.617188 17.261719 19.574219 17.261719 19.574219 17.265625 19.574219 17.265625 19.570312L18.410156 20.71875C18.078125 20.972656 17.742188 21.214844 17.394531 21.429688zM15.472656 22.394531L14.371094 21.292969C14.5625 21.210938 14.753906 21.121094 14.941406 21.03125 14.988281 21.007812 15.03125 20.984375 15.078125 20.960938 15.230469 20.886719 15.382812 20.804688 15.53125 20.722656L16.660156 21.851562C16.269531 22.054688 15.875 22.238281 15.472656 22.394531zM12.714844 23.097656L11.707031 22.089844C11.792969 22.074219 11.878906 22.058594 11.960938 22.042969 12.179688 21.996094 12.398438 21.949219 12.613281 21.890625 12.679688 21.875 12.746094 21.855469 12.8125 21.835938 12.984375 21.789062 13.15625 21.738281 13.328125 21.679688 13.398438 21.660156 13.46875 21.636719 13.535156 21.613281L14.617188 22.695312C13.988281 22.886719 13.351562 23.019531 12.714844 23.097656zM6.730469 21.839844C6.808594 21.863281 6.882812 21.886719 6.960938 21.90625 7.1875 21.96875 7.414062 22.019531 7.644531 22.066406L8.203125 22.625C7.582031 22.398438 6.988281 22.113281 6.429688 21.753906 6.53125 21.785156 6.628906 21.808594 6.730469 21.839844zM9.769531 23.039062L8.972656 22.242188C9.203125 22.257812 9.429688 22.265625 9.664062 22.269531 9.675781 22.269531 9.691406 22.269531 9.703125 22.269531 9.796875 22.269531 9.890625 22.265625 9.980469 22.261719 10.171875 22.257812 10.363281 22.25 10.550781 22.234375 10.597656 22.230469 10.640625 22.226562 10.6875 22.222656L11.636719 23.175781C11.007812 23.1875 10.382812 23.144531 9.769531 23.039062zM19.046875 20.199219L17.894531 19.046875C17.898438 19.046875 17.902344 19.042969 17.90625 19.039062 18.105469 18.863281 18.300781 18.679688 18.492188 18.492188 18.589844 18.394531 18.679688 18.292969 18.773438 18.195312L19.921875 19.34375C19.832031 19.445312 19.742188 19.546875 19.644531 19.644531 19.453125 19.839844 19.25 20.019531 19.046875 20.199219zM2.617188 22.605469C1.945312 22.605469 1.394531 22.058594 1.394531 21.382812 1.394531 21.15625 1.210938 20.976562.988281 20.976562.761719 20.976562.578125 21.15625.578125 21.382812.578125 22.507812 1.492188 23.421875 2.617188 23.421875 2.84375 23.421875 3.027344 23.238281 3.027344 23.015625 3.027344 22.789062 2.84375 22.605469 2.617188 22.605469zM21.382812.984375C22.058594.984375 22.609375 1.714844 22.609375 2.617188 22.609375 2.84375 22.792969 3.023438 23.015625 3.023438 23.242188 3.023438 23.425781 2.84375 23.425781 2.617188 23.425781 1.265625 22.507812.167969 21.382812.167969 21.160156.167969 20.976562.351562 20.976562.578125 20.976562.800781 21.160156.984375 21.382812.984375zM23.425781 18.527344C23.425781 18.300781 23.242188 18.121094 23.015625 18.121094 22.792969 18.121094 22.609375 18.300781 22.609375 18.527344 22.609375 20.550781 20.960938 22.199219 18.9375 22.199219 18.710938 22.199219 18.527344 22.382812 18.527344 22.605469 18.527344 22.832031 18.710938 23.015625 18.9375 23.015625 21.410156 23.015625 23.425781 21 23.425781 18.527344zM23.425781 21.789062C23.199219 21.789062 23.015625 21.972656 23.015625 22.199219 23.015625 22.640625 22.457031 23.015625 21.792969 23.015625 21.566406 23.015625 21.382812 23.199219 21.382812 23.421875 21.382812 23.648438 21.566406 23.832031 21.792969 23.832031 22.917969 23.832031 23.832031 23.097656 23.832031 22.199219 23.832031 21.972656 23.648438 21.789062 23.425781 21.789062zM23.425781 21.789062"/>
    <path d="M 9.707031 20.644531 C 9.917969 20.644531 10.128906 20.632812 10.335938 20.621094 C 10.402344 20.617188 10.46875 20.609375 10.53125 20.605469 C 10.683594 20.589844 10.835938 20.574219 10.988281 20.554688 C 11.054688 20.546875 11.121094 20.539062 11.1875 20.527344 C 11.386719 20.496094 11.585938 20.460938 11.78125 20.417969 C 11.847656 20.402344 11.914062 20.386719 11.980469 20.371094 C 12.121094 20.335938 12.261719 20.300781 12.402344 20.261719 C 12.484375 20.238281 12.5625 20.214844 12.644531 20.191406 C 12.789062 20.144531 12.925781 20.097656 13.066406 20.050781 C 13.128906 20.027344 13.191406 20.007812 13.257812 19.984375 C 13.449219 19.910156 13.640625 19.832031 13.832031 19.746094 C 13.894531 19.71875 13.953125 19.691406 14.015625 19.664062 C 14.164062 19.59375 14.3125 19.519531 14.457031 19.445312 C 14.511719 19.417969 14.570312 19.386719 14.625 19.359375 C 14.820312 19.253906 15.015625 19.140625 15.207031 19.023438 C 15.210938 19.023438 15.210938 19.019531 15.214844 19.019531 L 15.714844 18.710938 L 15.703125 18.699219 C 16.28125 18.300781 16.828125 17.84375 17.339844 17.335938 C 19.253906 15.421875 20.417969 12.976562 20.617188 10.453125 C 20.816406 7.902344 20.011719 5.585938 18.347656 3.921875 C 16.867188 2.441406 14.8125 1.625 12.566406 1.625 C 9.816406 1.625 7.035156 2.832031 4.933594 4.933594 C 3.019531 6.847656 1.855469 9.292969 1.65625 11.816406 C 1.457031 14.363281 2.261719 16.683594 3.925781 18.347656 C 5.40625 19.828125 7.460938 20.644531 9.707031 20.644531 Z M 4.5 17.769531 C 4.417969 17.6875 4.347656 17.597656 4.273438 17.511719 C 4.40625 16.953125 4.78125 16.519531 5.242188 16.386719 L 7.675781 15.792969 C 8.003906 15.710938 8.257812 15.4375 8.320312 15.097656 L 8.5 14.132812 L 8.285156 13.980469 C 7.429688 13.375 6.980469 12.507812 6.917969 11.328125 L 6.90625 11.089844 L 6.691406 10.984375 C 6.449219 10.863281 6.324219 10.597656 6.382812 10.320312 L 6.496094 9.800781 C 6.550781 9.550781 6.742188 9.332031 7 9.226562 L 7.175781 9.15625 L 7.234375 8.972656 C 7.390625 8.480469 7.597656 8.03125 7.855469 7.636719 C 7.960938 7.472656 8.046875 7.347656 8.117188 7.246094 C 8.425781 6.8125 8.496094 6.65625 8.492188 6.019531 C 8.527344 6.046875 8.5625 6.070312 8.601562 6.097656 C 9.207031 6.507812 10.046875 6.6875 11.03125 6.625 C 11.136719 6.617188 11.234375 6.621094 11.351562 6.613281 C 14.046875 6.617188 15.394531 7.566406 15.472656 9.515625 L 15.484375 9.753906 L 15.695312 9.863281 C 16.070312 10.058594 16.285156 10.378906 16.253906 10.703125 L 16.1875 11.386719 C 16.148438 11.792969 15.753906 12.121094 15.226562 12.179688 L 14.996094 12.207031 L 14.898438 12.417969 C 14.304688 13.746094 13.332031 14.539062 12.011719 14.769531 L 11.722656 14.820312 L 11.566406 15.914062 C 11.519531 16.261719 11.675781 16.621094 11.972656 16.851562 L 14.269531 18.625 C 14.25 18.636719 14.226562 18.644531 14.207031 18.65625 C 14.066406 18.730469 13.929688 18.800781 13.789062 18.871094 C 13.734375 18.894531 13.679688 18.921875 13.625 18.945312 C 13.507812 18.996094 13.394531 19.046875 13.277344 19.097656 C 13.214844 19.121094 13.152344 19.148438 13.085938 19.171875 C 12.972656 19.21875 12.855469 19.257812 12.738281 19.300781 C 12.679688 19.320312 12.621094 19.34375 12.5625 19.363281 C 12.394531 19.417969 12.226562 19.464844 12.058594 19.511719 C 11.996094 19.527344 11.933594 19.542969 11.867188 19.558594 C 11.753906 19.585938 11.644531 19.613281 11.53125 19.636719 C 11.457031 19.652344 11.382812 19.664062 11.308594 19.679688 C 11.203125 19.695312 11.097656 19.714844 10.988281 19.730469 C 10.917969 19.742188 10.84375 19.75 10.773438 19.757812 C 10.65625 19.773438 10.539062 19.785156 10.421875 19.792969 C 10.363281 19.800781 10.300781 19.804688 10.242188 19.808594 C 10.0625 19.820312 9.886719 19.828125 9.707031 19.828125 C 7.679688 19.828125 5.828125 19.097656 4.5 17.769531 Z M 2.46875 11.878906 C 2.652344 9.550781 3.734375 7.285156 5.511719 5.507812 C 7.460938 3.558594 10.03125 2.441406 12.566406 2.441406 C 14.59375 2.441406 16.441406 3.171875 17.769531 4.5 C 19.261719 5.992188 19.984375 8.082031 19.800781 10.390625 C 19.617188 12.71875 18.539062 14.980469 16.761719 16.761719 C 16.222656 17.296875 15.636719 17.769531 15.019531 18.171875 L 12.472656 16.207031 C 12.398438 16.148438 12.371094 16.074219 12.375 16.027344 L 12.449219 15.511719 C 13.820312 15.1875 14.882812 14.308594 15.550781 12.953125 C 16.347656 12.777344 16.929688 12.191406 17 11.464844 L 17.066406 10.78125 C 17.121094 10.1875 16.824219 9.621094 16.273438 9.257812 C 16.132812 7.632812 15.132812 5.800781 11.355469 5.796875 C 11.226562 5.796875 11.101562 5.800781 10.976562 5.8125 C 10.175781 5.863281 9.511719 5.730469 9.058594 5.421875 C 8.8125 5.257812 8.699219 5.128906 8.644531 5.046875 C 8.523438 4.871094 8.308594 4.792969 8.09375 4.851562 C 7.875 4.910156 7.714844 5.097656 7.695312 5.320312 C 7.679688 5.527344 7.671875 5.738281 7.675781 5.941406 C 7.683594 6.453125 7.683594 6.453125 7.453125 6.777344 C 7.375 6.886719 7.285156 7.015625 7.167969 7.195312 C 6.90625 7.605469 6.683594 8.0625 6.511719 8.558594 C 6.101562 8.785156 5.796875 9.179688 5.699219 9.628906 L 5.585938 10.148438 C 5.464844 10.714844 5.675781 11.265625 6.121094 11.589844 C 6.230469 12.8125 6.730469 13.789062 7.605469 14.488281 L 7.519531 14.953125 C 7.515625 14.976562 7.5 14.996094 7.484375 15 L 5.03125 15.597656 C 4.449219 15.765625 3.96875 16.191406 3.683594 16.761719 C 2.757812 15.394531 2.328125 13.707031 2.46875 11.878906 Z M 2.46875 11.878906"/>
</svg>

<svg xmlns="http://www.w3.org/2000/svg" width="32" height="32" viewBox="0 0 24 24">
    <path d="M23.879 13.074c.137-.937.156-1.875.058-2.793 0-.027-.003-.058-.007-.09-.25-2.132-1.14-4.132-2.7-5.691a8.478 8.478 0 0 0-.921-.8 8.613 8.613 0 0 0-.809-.93C15.445-1.285 8.395-.832 3.781 3.777-.832 8.391-1.285 15.445 2.77 19.5c.289.29.597.547.914.79.265.347.53.655.816.94 1.371 1.372 3.086 2.223 4.93 2.579.008.003.015.003.027.003.035.008.07.016.105.02a.056.056 0 0 0 .024.008h.004a10.759 10.759 0 0 0 2.973.101c.003 0 .007.004.015.004.016 0 .035-.008.055-.011.96-.102 1.926-.325 2.87-.672.017-.008.032-.012.048-.02a12.794 12.794 0 0 0 1.918-.906.478.478 0 0 0 .113-.066c.598-.352 1.18-.762 1.734-1.223a13.176 13.176 0 0 0 3.781-5.125c.372-.906.63-1.84.77-2.77a.27.27 0 0 0 .012-.078zm-1.328 1.977l-1.094-1.094c.059-.148.113-.293.164-.441.024-.067.043-.133.063-.196a13.37 13.37 0 0 0 .214-.722c.036-.137.067-.278.098-.414l1.031 1.035a11.5 11.5 0 0 1-.476 1.832zm-.906 1.976l-1.133-1.132c.027-.043.054-.086.078-.13.012-.019.023-.035.031-.05.129-.223.246-.45.36-.676.027-.05.05-.098.074-.144l.058-.13 1.114 1.114c-.172.387-.368.77-.582 1.148zm-1.18 1.707l-1.149-1.148c.114-.133.22-.266.325-.402.007-.008.015-.02.023-.032.137-.18.27-.363.398-.55l1.141 1.136c-.23.34-.473.672-.738.996zm1.703-7.527c.012-.078.02-.152.031-.23.02-.196.04-.391.051-.586.008-.11.008-.223.012-.332.004-.114.008-.227.008-.34v-.145l.867.871c.058.575.066 1.16.023 1.75zm-.414-4.777c.523.8.89 1.68 1.129 2.605l-.7-.7c-.007-.065-.019-.128-.027-.19a8.876 8.876 0 0 0-.05-.317 13.392 13.392 0 0 0-.118-.57c-.02-.086-.043-.168-.066-.254-.04-.145-.082-.29-.125-.43-.016-.05-.027-.097-.043-.144zM4.355 4.355C6.7 2.012 9.707.812 12.566.812c2.383 0 4.66.836 6.36 2.536.226.226.441.465.637.715l.105.14c.012.012.02.024.027.031.18.239.344.485.496.739.004.007.008.011.012.015.149.25.285.508.406.77.004.012.012.023.016.035.117.254.219.508.309.77.007.019.02.042.027.066.078.234.144.469.203.707.016.055.031.11.043.168.055.223.094.453.133.68l.035.238c.027.219.047.437.063.656l.011.274c.008.218.008.437 0 .656 0 .09-.004.18-.012.273a10.073 10.073 0 0 1-.09.914c-.035.239-.074.48-.124.72-.012.054-.028.112-.04.167a11.424 11.424 0 0 1-.218.828c-.082.266-.176.527-.277.785l-.047.117c-.106.262-.223.52-.348.778l-.059.117c-.125.258-.265.508-.414.758l-.066.113c-.152.25-.313.492-.484.735-.024.035-.051.066-.075.097a9.89 9.89 0 0 1-.562.719l-.059.07a12.543 12.543 0 0 1-1.437 1.43c-.239.2-.48.387-.727.566a10.17 10.17 0 0 1-.836.559c-.035.02-.07.043-.101.062-.254.149-.508.29-.766.418-.035.02-.074.036-.11.055-.257.125-.523.246-.788.352-.032.015-.067.027-.098.039-.27.105-.543.203-.816.285l-.075.023c-.25.075-.5.14-.754.196l-.144.035a12.166 12.166 0 0 1-.953.16 10.65 10.65 0 0 1-.696.058l-.253.012c-.227.008-.45.004-.676-.004-.082 0-.168-.008-.254-.011a9.537 9.537 0 0 1-.672-.063l-.223-.035a8.39 8.39 0 0 1-.695-.133c-.05-.012-.102-.023-.152-.039a7.733 7.733 0 0 1-.727-.21c-.016-.005-.035-.013-.05-.017a9.61 9.61 0 0 1-.782-.316l-.027-.012a10.49 10.49 0 0 1-.785-.418c-.254-.152-.5-.32-.739-.5l-.035-.023-.137-.105c-.25-.2-.488-.41-.718-.641C-.391 15.184.063 8.648 4.355 4.355zm13.04 17.075l-1.141-1.14c.055-.036.11-.067.16-.102.02-.012.035-.02.05-.032.22-.148.434-.3.645-.46.051-.04.102-.079.153-.122 0 0 .004 0 .004-.004l1.144 1.149c-.332.254-.668.496-1.015.71zm-1.922.965l-1.102-1.102c.191-.082.383-.172.57-.262l.137-.07c.152-.074.305-.156.453-.238l1.13 1.129c-.391.203-.786.386-1.188.543zm-2.758.703l-1.008-1.008.254-.047c.219-.047.437-.094.652-.152.067-.016.133-.036.2-.055a8.63 8.63 0 0 0 .515-.156c.07-.02.14-.043.207-.067l1.082 1.082c-.629.192-1.265.325-1.902.403zM6.73 21.84c.079.023.153.047.23.066.228.063.454.114.685.16l.558.559a8.894 8.894 0 0 1-1.773-.871c.101.031.199.055.3.086zm3.04 1.2l-.797-.798c.23.016.457.024.691.028h.04c.093 0 .187-.004.276-.008a9.14 9.14 0 0 0 .57-.028l.137-.011.95.953a9.922 9.922 0 0 1-1.867-.137zm9.277-2.84l-1.152-1.153c.003 0 .007-.004.011-.008.2-.176.395-.36.586-.547.098-.097.188-.199.281-.297l1.149 1.149c-.09.101-.18.203-.277.3-.192.196-.395.376-.598.555zm0 0M2.617 22.605a1.224 1.224 0 0 1-1.222-1.222.406.406 0 0 0-.407-.406c-.226 0-.41.18-.41.406a2.04 2.04 0 0 0 2.04 2.039.41.41 0 0 0 .41-.406.41.41 0 0 0-.41-.41zm0 0M21.383.984c.676 0 1.226.73 1.226 1.633 0 .227.184.406.407.406.226 0 .41-.18.41-.406 0-1.351-.918-2.449-2.043-2.449a.408.408 0 0 0 0 .816zm0 0M23.426 18.527a.407.407 0 0 0-.41-.406.406.406 0 0 0-.407.406 3.678 3.678 0 0 1-3.672 3.672.41.41 0 0 0-.41.406c0 .227.184.41.41.41a4.496 4.496 0 0 0 4.489-4.488zm0 0M23.426 21.79a.41.41 0 0 0-.41.41c0 .44-.559.816-1.223.816a.41.41 0 0 0-.41.406c0 .226.183.41.41.41 1.125 0 2.039-.734 2.039-1.633a.41.41 0 0 0-.406-.41zm0 0"/>
    <path d="M9.707 20.645c.211 0 .422-.012.629-.024.066-.004.133-.012.195-.016.153-.015.305-.03.457-.05a9.935 9.935 0 0 0 .793-.137l.2-.047c.14-.035.28-.07.421-.11l.243-.07c.144-.046.28-.093.421-.14.063-.024.125-.043.192-.067.191-.074.383-.152.574-.238l.184-.082c.148-.07.296-.144.441-.219.055-.027.113-.058.168-.086.195-.105.39-.218.582-.336.004 0 .004-.003.008-.003l.5-.31-.012-.01a11.976 11.976 0 0 0 1.637-1.364c1.914-1.914 3.078-4.36 3.277-6.883.2-2.55-.605-4.867-2.27-6.531-1.48-1.48-3.535-2.297-5.78-2.297-2.75 0-5.532 1.207-7.633 3.309-1.914 1.914-3.079 4.359-3.278 6.882-.199 2.547.606 4.868 2.27 6.532 1.48 1.48 3.535 2.297 5.781 2.297zM4.5 17.77c-.082-.082-.152-.172-.227-.258.133-.559.508-.992.97-1.125l2.433-.594a.879.879 0 0 0 .644-.695l.18-.965-.215-.153c-.855-.605-1.305-1.472-1.367-2.652l-.012-.238-.215-.106a.591.591 0 0 1-.308-.664l.113-.52A.83.83 0 0 1 7 9.228l.176-.07.058-.184c.157-.493.364-.942.621-1.336.106-.164.192-.29.262-.39.309-.434.38-.59.375-1.227.035.027.07.05.11.078.605.41 1.445.59 2.43.527.105-.008.202-.004.32-.012 2.695.004 4.043.953 4.12 2.903l.012.238.211.11c.375.195.59.515.559.84l-.067.683c-.039.406-.433.734-.96.793l-.23.027-.099.211c-.593 1.328-1.566 2.121-2.886 2.352l-.29.05-.156 1.094c-.046.348.11.707.407.938l2.297 1.773c-.02.012-.043.02-.063.031-.14.074-.277.145-.418.215l-.164.074-.348.153c-.062.023-.125.05-.191.074-.113.047-.23.086-.348.129-.058.02-.117.043-.175.062-.168.055-.336.102-.504.149l-.192.047c-.113.027-.222.054-.336.078-.074.015-.148.027-.222.043-.106.015-.211.035-.32.05-.071.012-.145.02-.216.028a5.354 5.354 0 0 1-.351.035c-.059.008-.121.012-.18.016-.18.011-.355.02-.535.02-2.027 0-3.879-.731-5.207-2.06zm-2.031-5.891c.183-2.328 1.265-4.594 3.043-6.371 1.949-1.95 4.52-3.067 7.054-3.067 2.028 0 3.875.73 5.204 2.059 1.492 1.492 2.214 3.582 2.03 5.89-.183 2.329-1.26 4.59-3.038 6.372a11.017 11.017 0 0 1-1.742 1.41l-2.547-1.965c-.075-.059-.102-.133-.098-.18l.074-.515c1.371-.325 2.434-1.203 3.102-2.559.797-.176 1.379-.762 1.449-1.488l.066-.684c.055-.594-.242-1.16-.793-1.523-.14-1.625-1.14-3.457-4.918-3.461a4.04 4.04 0 0 0-.378.016c-.801.05-1.465-.083-1.918-.391-.246-.164-.36-.293-.414-.375a.499.499 0 0 0-.551-.195.537.537 0 0 0-.399.468 6.639 6.639 0 0 0-.02.621c.009.512.009.512-.222.836-.078.11-.168.239-.285.418-.262.41-.484.867-.656 1.364-.41.226-.715.62-.813 1.07l-.113.52c-.121.566.09 1.117.535 1.44.11 1.223.61 2.2 1.484 2.9l-.085.464c-.004.024-.02.043-.036.047l-2.453.598c-.582.168-1.062.593-1.347 1.164-.926-1.367-1.356-3.055-1.215-4.883zm0 0"/>
</svg>
